X:4
M:6/8
L:1/8
K:D
|: e | edc BAG | FGA Bcd | cde g2f | eee e2a | daa dbb | daa dbb | afd Bec | d2d d2 :|

